src/assets/images/siberia.svg

<svg width="120" height="57" viewBox="0 0 120 57" fill="none" xmlns="http://www.w3.org/2000/svg">
<g style="mix-blend-mode:luminosity" clip-path="url(#clip0)">
<path fill-rule="evenodd" clip-rule="evenodd" d="M29.4763 18.0144H32.8256L37.0504 30.8185L41.2966 18.0144H44.6368L47.6784 36.3699H44.3461L42.4085 24.7763L38.5672 36.3699H35.5177L31.6934 24.7763L29.7173 36.3699H26.3477L29.4763 18.0144ZM50.5051 18.0144H60.4126V21.44H53.9426V24.7374H60.4126V28.1114H53.9426V32.9432H60.4126V36.3687H50.5051V18.0144ZM63.5967 36.371V18.0144H73.1005V21.3885H67.0342V24.9422H67.7921C69.3293 24.9422 70.5848 25.1127 71.5576 25.4536C72.5349 25.7946 73.3482 26.4376 73.9963 27.3792C74.6456 28.3254 74.9691 29.4409 74.9691 30.7327C74.9691 32.0107 74.7248 33.0335 74.2406 33.7921C73.752 34.5553 73.0824 35.1731 72.2318 35.6536C71.3766 36.1307 70.1969 36.3699 68.6891 36.3699H63.5967V36.371ZM67.0342 28.0623V33.0473H67.9063C69.4944 33.0473 70.5011 32.8379 70.9264 32.4214C71.3472 32.0084 71.5587 31.4455 71.5587 30.7384C71.5587 28.9535 70.2907 28.0623 67.7548 28.0623H67.0342ZM78.0243 18.0144H87.9318V21.44H81.4617V24.7374H87.9318V28.1114H81.4617V32.9432H87.9318V36.3687H78.0243V18.0144ZM102.899 36.371L97.8653 22.9148L92.756 36.371H89.0912L96.1008 18.0155H99.605L106.593 36.371H102.899ZM108.653 36.371V18.0144H112.09V24.9422H112.845C114.289 24.9422 115.494 25.1127 116.455 25.449C117.416 25.7854 118.249 26.425 118.95 27.3666C119.653 28.3128 120.003 29.4501 120.003 30.7796C120.003 32.037 119.704 33.1022 119.101 33.9752C118.498 34.8482 117.804 35.466 117.007 35.8287C116.216 36.1914 115.124 36.3699 113.743 36.3699H108.653V36.371ZM112.09 28.0623V33.0473H112.962C114.404 33.0473 115.367 32.8688 115.856 32.5107C116.345 32.1526 116.589 31.5393 116.589 30.6743C116.589 28.9318 115.329 28.0623 112.811 28.0623H112.09Z" fill="#010005"/>
<path fill-rule="evenodd" clip-rule="evenodd" d="M17.5913 41.4055L15.1695 43.7315C13.5226 41.9764 11.6732 41.0977 9.61344 41.0977C7.87829 41.0977 6.41235 41.6984 5.22354 42.8963C4.03133 44.0931 3.43749 45.5679 3.43749 47.323C3.43749 48.5461 3.70331 49.6319 4.22928 50.5781C4.75638 51.5277 5.5018 52.2737 6.46212 52.8149C7.42697 53.356 8.49702 53.6249 9.67565 53.6249C10.6778 53.6249 11.5963 53.4373 12.4265 53.0586C13.2602 52.6799 14.1753 51.9888 15.1684 50.9922L17.5144 53.4716C16.1751 54.7965 14.9071 55.7176 13.7149 56.2278C12.5227 56.7438 11.1574 56.999 9.62927 56.999C6.80711 56.999 4.49396 56.0951 2.69547 54.2851C0.896983 52.4796 0 50.157 0 47.3321C0 45.5004 0.408336 43.8768 1.22953 42.4535C2.04621 41.0302 3.21805 39.8884 4.74733 39.0234C6.27209 38.1584 7.91562 37.7236 9.68017 37.7236C11.1755 37.7236 12.6166 38.0428 14.0067 38.6824C15.3924 39.322 16.5891 40.2293 17.5913 41.4055ZM33.8388 38.1836V56.539H30.4013V45.0484L23.5647 56.5402H20.5944V38.1836H24.0319V50.0506L30.9736 38.1836H33.8388ZM37.9583 56.5402V38.1836H47.462V41.5588H41.3958V45.1125H42.1537C43.6909 45.1125 44.9464 45.283 45.9192 45.6239C46.8965 45.9649 47.7098 46.6079 48.3579 47.5495C49.0072 48.4957 49.3307 49.6113 49.3307 50.903C49.3307 52.181 49.0863 53.2039 48.6022 53.9624C48.1136 54.7256 47.4439 55.3434 46.5933 55.824C45.7382 56.3011 44.5584 56.5402 43.0506 56.5402H37.9583ZM41.3958 48.2314V53.2165H42.2679C43.856 53.2165 44.8627 53.0082 45.288 52.5906C45.7088 52.1776 45.9203 51.6147 45.9203 50.9076C45.9203 49.1227 44.6523 48.2314 42.1163 48.2314H41.3958ZM65.5793 38.1836V56.539H62.1418V45.0484L55.3053 56.5402H52.3349V38.1836H55.7724V50.0506L62.7141 38.1836H65.5793ZM69.6988 38.1836H73.3682C75.3522 38.1836 76.7808 38.3666 77.6563 38.7373C78.5329 39.108 79.2274 39.7087 79.7331 40.5359C80.2387 41.362 80.4909 42.3551 80.4909 43.5141C80.4909 44.7967 80.1584 45.8619 79.4921 46.7097C78.8304 47.5575 77.9289 48.1502 76.7876 48.482C76.118 48.6742 74.9009 48.768 73.1352 48.768V56.5402H69.6977V38.1836H69.6988ZM73.1363 45.3676H74.2437C75.1158 45.3676 75.7176 45.3036 76.0592 45.18C76.4008 45.0519 76.6654 44.8482 76.8634 44.5576C77.0568 44.2681 77.1541 43.918 77.1541 43.505C77.1541 42.7933 76.8804 42.2739 76.3329 41.9501C75.937 41.7075 75.1961 41.584 74.117 41.584H73.1352V45.3676H73.1363ZM97.097 38.1836V56.539H93.6595V45.0484L86.823 56.5402H83.8526V38.1836H87.2901V50.0506L94.2318 38.1836H97.097Z" fill="#3C6317"/>
<path fill-rule="evenodd" clip-rule="evenodd" d="M5.94394 33.8003C6.0876 35.7648 6.8873 37.0325 8.30686 37.3037C9.14503 37.4639 11.0668 37.6423 11.0974 37.2865C11.2342 35.6675 9.88026 36.2213 9.12467 35.7854C8.26954 35.2911 8.06367 34.0806 8.08743 33.1298C8.09308 32.877 8.14511 32.2843 8.748 32.2591C9.61218 32.2225 12.8302 31.1287 14.9749 28.4881C16.0177 27.2032 17.7257 25.2684 16.7767 23.884C16.1535 22.9744 13.6051 24.5259 13.1537 25.3497C12.6504 26.2696 12.8834 25.9206 12.0735 27.3176C10.387 30.2249 9.70607 30.7981 6.92689 31.8335C5.69396 32.2935 5.90548 33.2706 5.94394 33.8003Z" fill="#EF7C00"/>
<path fill-rule="evenodd" clip-rule="evenodd" d="M26.5664 11.7355C26.6976 12.2527 27.132 12.7961 27.7405 13.1073C28.2337 12.7526 28.5346 12.3327 28.7574 11.7481C28.2337 11.3934 27.1546 11.3545 26.5664 11.7355Z" fill="#EE7600"/>
<path fill-rule="evenodd" clip-rule="evenodd" d="M25.5057 7.70233C25.4819 7.50897 25.5543 7.32934 25.9016 7.42201C26.0724 7.46778 26.2239 7.55931 26.354 7.67601C26.7714 8.05358 26.9558 8.70231 26.7703 8.98491C26.5135 9.29497 25.9762 9.72746 25.854 10.0959C25.3043 11.2686 27.6243 11.8865 27.6243 10.4048C27.6243 10.0341 26.8302 9.91052 26.8302 9.6016C27.5021 9.84874 27.9896 9.84874 28.6615 9.6016C28.6615 9.91052 27.8675 10.0341 27.8675 10.4048C27.8675 11.8865 30.1489 11.2137 29.5381 10.1027C29.2621 9.68398 28.9579 9.47918 28.7226 8.98491C28.4783 8.30529 28.6615 7.62681 29.5641 7.43231C29.8639 7.36824 30.0652 7.50325 30.0336 7.71377C29.8153 8.01811 29.4544 8.30643 29.0879 8.67713C29.0563 8.72633 29.0483 8.84647 29.0879 8.92427C29.3232 9.38536 29.5494 9.69542 30.0042 9.78924C30.3706 9.48032 30.615 9.04784 30.8593 8.06044C31.1036 10.2217 28.9669 11.7034 28.8085 12.4631C28.683 13.1953 29.4544 12.6301 29.0393 14.05C30.2338 13.6965 32.3874 10.9872 31.6262 8.47462C31.4407 7.86022 31.6409 6.68175 31.5244 6.33737C30.3593 2.72874 24.3417 2.70129 23.8384 6.33165C23.5567 8.36021 22.9063 8.24122 21.2526 9.10733C16.3978 11.6473 13.2805 16.2353 8.79441 19.1151C6.49257 20.5934 1.84817 21.3405 0.59375 22.1551C3.14331 24.4297 5.3343 22.4652 5.88968 22.3531C5.80258 22.6906 5.12843 23.4972 5.04021 24.1631C4.68164 26.8644 5.74263 27.7545 4.72236 29.203C3.93283 30.3243 1.13895 30.29 0.789435 33.7144C0.632208 35.2544 0.856171 37.5084 1.28374 38.7635C1.49073 39.3722 4.68843 39.3847 4.84452 38.7692C5.05491 36.5438 3.81972 37.4443 3.58897 35.9443C3.37971 34.5816 3.49509 33.9466 4.21109 33.0817C5.07979 32.0325 6.61586 31.2327 7.85784 30.6229C11.6494 28.7614 11.0996 26.615 12.4988 24.877C13.7748 23.2924 16.9396 23.1276 18.5967 22.5647C15.1084 18.1255 14.9862 18.0019 19.7482 14.6667C15.8413 18.7421 16.0958 18.6952 19.7482 22.5704C19.3931 23.3382 19.039 24.107 18.6838 24.8747C18.2789 25.9594 20.6226 27.7237 21.4325 26.5521C22.015 25.7088 22.1654 25.1287 22.2424 24.0372C22.3589 22.3977 21.3194 21.4949 20.9857 20.3405C20.8443 19.8531 20.9484 19.3852 21.3352 19.1128C22.2243 18.4836 23.6336 17.4127 24.0725 16.5797C24.3293 16.0912 24.5465 15.0752 24.5103 14.2972C24.4492 13.0008 23.533 12.1977 23.2898 10.0364C23.9617 11.6416 25.0329 13.7388 26.2205 14.05C25.6708 12.5684 26.466 13.1084 26.3427 12.4448C26.1549 11.4299 24.206 10.0364 24.5725 8.06044C24.7557 8.80185 24.8677 8.99749 25.3055 9.60389C25.8145 9.5341 26.19 9.26065 26.3879 8.90482C26.4038 8.86249 26.4309 8.73205 26.3766 8.66112C26.13 8.33618 25.5667 8.18515 25.5057 7.70233Z" fill="#EF7C00"/>
<path fill-rule="evenodd" clip-rule="evenodd" d="M23.9927 6.12459C23.8603 5.84199 23.5719 3.78139 23.918 2.1098C24.2438 0.876413 24.944 0.354684 25.5989 0C24.9756 0.392441 24.7053 0.794034 24.6069 1.00913C25.1193 0.683053 25.4507 0.657882 25.8523 0.718521C24.8456 0.74026 24.815 1.20478 24.7471 1.34894C24.4825 2.38554 25.5265 3.26996 26.1328 4.07543C25.2912 4.47703 24.3592 5.07427 23.9927 6.12459Z" fill="#EF7C00"/>
<path fill-rule="evenodd" clip-rule="evenodd" d="M27.1964 14.5432C27.1353 14.4814 26.8446 14.5695 26.8299 14.7903C26.6603 17.4585 25.8164 18.8646 23.8992 20.3474C23.4105 21.4584 25.1468 21.5854 26.2565 21.2845C27.4396 20.9641 28.6171 20.4492 28.7823 19.8531C29.0526 18.8772 29.1024 18.2788 29.5152 18.0008C29.5559 19.0305 29.5967 20.0591 29.6374 21.0888C29.6374 22.694 31.8352 21.7066 31.8352 20.9652C31.7944 19.9767 31.7537 18.9893 31.713 18.0008C31.4687 16.1484 29.8817 16.272 27.6839 17.3829C27.5222 16.4367 27.3593 15.4905 27.1964 14.5432Z" fill="#EF7C00"/>
<path fill-rule="evenodd" clip-rule="evenodd" d="M31.5251 6.33626C31.6575 6.05365 31.8215 3.78139 31.4765 2.1098C31.1507 0.876413 30.4505 0.354684 29.7956 0C30.4189 0.392441 30.6892 0.794034 30.7876 1.00913C30.2752 0.683053 29.9438 0.657882 29.5422 0.718521C30.5489 0.74026 30.5795 1.20478 30.6474 1.34894C30.912 2.38554 29.868 3.26996 29.2617 4.07543C30.1033 4.47703 31.1586 5.28708 31.5251 6.33626Z" fill="#EF7C00"/>
</g>
<defs>
<clipPath id="clip0">
<rect width="120" height="57" fill="white"/>
</clipPath>
</defs>
</svg>

<svg width="120" height="57" fill="none" xmlns="http://www.w3.org/2000/svg"><g style="mix-blend-mode:luminosity" clip-path="url(#clip0)" fill-rule="evenodd" clip-rule="evenodd"><path d="M29.476 18.014h3.35L37.05 30.82l4.247-12.805h3.34l3.041 18.356h-3.332l-1.938-11.594-3.84 11.594h-3.05l-3.825-11.594-1.976 11.594h-3.37l3.13-18.356zm21.03 0h9.907v3.426h-6.47v3.297h6.47v3.374h-6.47v4.832h6.47v3.426h-9.908V18.014zm13.09 18.357V18.014h9.505v3.375h-6.067v3.553h.758c1.537 0 2.793.17 3.766.512.977.34 1.79.984 2.438 1.925.65.946.973 2.062.973 3.354 0 1.278-.244 2.3-.728 3.06-.489.762-1.159 1.38-2.01 1.86-.854.478-2.034.717-3.542.717h-5.092v.001zm3.438-8.309v4.985h.872c1.588 0 2.595-.21 3.02-.626.421-.413.633-.976.633-1.683 0-1.785-1.268-2.676-3.804-2.676h-.72zm10.99-10.048h9.908v3.426h-6.47v3.297h6.47v3.374h-6.47v4.832h6.47v3.426h-9.908V18.014zM102.9 36.371l-5.034-13.456-5.109 13.456h-3.665l7.01-18.356h3.504l6.988 18.356H102.9zm5.754 0V18.014h3.437v6.928h.755c1.444 0 2.649.17 3.61.507.961.336 1.794.976 2.495 1.918.703.946 1.053 2.083 1.053 3.413 0 1.257-.299 2.322-.902 3.195-.603.873-1.297 1.491-2.094 1.854-.791.362-1.883.54-3.264.54h-5.09v.002zm3.437-8.309v4.985h.872c1.442 0 2.405-.178 2.894-.536.489-.358.733-.972.733-1.837 0-1.742-1.26-2.612-3.778-2.612h-.721z" fill="#010005"/><path d="M17.591 41.406L15.17 43.73c-1.646-1.755-3.496-2.633-5.556-2.633-1.735 0-3.2.6-4.39 1.798-1.192 1.197-1.786 2.672-1.786 4.427 0 1.223.266 2.309.792 3.255a5.706 5.706 0 002.233 2.237c.965.541 2.035.81 3.214.81 1.002 0 1.92-.188 2.75-.566.834-.38 1.75-1.07 2.742-2.067l2.346 2.48c-1.339 1.325-2.607 2.246-3.8 2.756-1.191.516-2.557.771-4.085.771-2.822 0-5.135-.904-6.934-2.714C.897 52.48 0 50.157 0 47.332c0-1.832.408-3.455 1.23-4.879.816-1.423 1.988-2.565 3.517-3.43a9.833 9.833 0 014.933-1.3c1.495 0 2.937.32 4.327.96a10.37 10.37 0 013.584 2.723zm16.248-3.222v18.355H30.4v-11.49L23.565 56.54h-2.97V38.184h3.437V50.05l6.942-11.867h2.865zm4.12 18.356V38.184h9.503v3.375h-6.066v3.553h.758c1.537 0 2.792.171 3.765.512.978.34 1.79.984 2.439 1.925.65.947.973 2.062.973 3.354 0 1.278-.245 2.3-.729 3.06-.488.763-1.158 1.38-2.009 1.861-.855.477-2.035.716-3.542.716h-5.093zm3.437-8.309v4.986h.872c1.588 0 2.595-.209 3.02-.626.42-.413.632-.976.632-1.683 0-1.785-1.268-2.677-3.804-2.677h-.72zm24.183-10.047v18.355h-3.437v-11.49L55.305 56.54h-2.97V38.184h3.437V50.05l6.942-11.867h2.865zm4.12 0h3.67c1.983 0 3.412.183 4.287.553a4.39 4.39 0 012.077 1.799c.506.826.758 1.82.758 2.978 0 1.283-.333 2.348-.999 3.196-.662.847-1.563 1.44-2.704 1.772-.67.192-1.887.286-3.653.286v7.772h-3.437V38.184zm3.437 7.184h1.108c.872 0 1.474-.064 1.815-.188.342-.128.606-.332.804-.622.194-.29.291-.64.291-1.053 0-.712-.274-1.231-.821-1.555-.396-.242-1.137-.366-2.216-.366h-.982v3.784h.001zm23.961-7.184v18.355h-3.438v-11.49L86.823 56.54h-2.97V38.184h3.437V50.05l6.942-11.867h2.865z" fill="#3C6317"/><path d="M5.944 33.8c.144 1.965.943 3.233 2.363 3.504.838.16 2.76.338 2.79-.018.137-1.619-1.217-1.065-1.972-1.5-.855-.495-1.061-1.705-1.038-2.656.006-.253.058-.846.661-.87.864-.038 4.082-1.131 6.227-3.772 1.043-1.285 2.75-3.22 1.802-4.604-.623-.91-3.172.642-3.623 1.466-.504.92-.27.57-1.08 1.968-1.687 2.907-2.368 3.48-5.147 4.515-1.233.46-1.022 1.438-.983 1.967z" fill="#EF7C00"/><path d="M26.566 11.736c.132.517.566 1.06 1.175 1.371.493-.354.794-.774 1.016-1.359-.523-.355-1.602-.393-2.19-.012z" fill="#EE7600"/><path d="M25.506 7.702c-.024-.193.048-.373.396-.28.17.046.322.137.452.254.417.378.602 1.026.416 1.309-.256.31-.794.742-.916 1.11-.55 1.174 1.77 1.791 1.77.31 0-.37-.794-.494-.794-.803.672.247 1.16.247 1.832 0 0 .309-.794.432-.794.803 0 1.482 2.28.809 1.67-.302-.276-.419-.58-.624-.815-1.118-.245-.68-.061-1.358.841-1.553.3-.064.501.071.47.282-.219.304-.58.592-.946.963-.032.05-.04.17 0 .247.235.461.461.771.916.865.367-.309.611-.741.855-1.729.245 2.162-1.892 3.643-2.05 4.403-.126.732.645.167.23 1.587 1.195-.354 3.348-3.063 2.587-5.575-.185-.615.015-1.793-.102-2.138-1.165-3.608-7.182-3.636-7.686-.005-.281 2.028-.932 1.91-2.585 2.775-4.855 2.54-7.973 7.128-12.459 10.008-2.301 1.478-6.946 2.226-8.2 3.04 2.55 2.275 4.74.31 5.296.198-.087.338-.762 1.144-.85 1.81-.358 2.701.703 3.591-.318 5.04-.79 1.121-3.583 1.087-3.933 4.511-.157 1.54.067 3.794.495 5.05.207.608 3.404.62 3.56.005.21-2.225-1.024-1.325-1.255-2.825-.21-1.362-.094-1.997.622-2.862.869-1.05 2.405-1.85 3.647-2.46 3.791-1.86 3.242-4.007 4.64-5.745 1.277-1.585 4.442-1.75 6.099-2.312-3.489-4.44-3.61-4.563 1.151-7.898-3.907 4.075-3.652 4.028 0 7.903l-1.064 2.305c-.405 1.084 1.939 2.849 2.748 1.677.583-.843.733-1.423.81-2.515.117-1.64-.923-2.542-1.256-3.697-.142-.487-.038-.955.35-1.227.888-.63 2.298-1.7 2.737-2.533.256-.489.474-1.505.437-2.283-.06-1.296-.977-2.1-1.22-4.26.672 1.605 1.743 3.702 2.93 4.013-.55-1.482.246-.942.123-1.605-.188-1.015-2.137-2.409-1.77-4.385.183.742.295.937.732 1.544.51-.07.885-.343 1.083-.7.016-.042.043-.172-.011-.243-.247-.325-.81-.476-.871-.959z" fill="#EF7C00"/><path d="M23.993 6.125c-.133-.283-.421-2.344-.075-4.015C24.244.876 24.944.355 25.598 0c-.622.392-.893.794-.991 1.01.512-.327.844-.352 1.245-.291-1.006.021-1.037.486-1.105.63-.264 1.037.78 1.921 1.386 2.726-.842.402-1.774 1-2.14 2.05zm3.203 8.418c-.06-.062-.351.027-.366.247-.17 2.669-1.014 4.075-2.93 5.557-.49 1.111 1.247 1.238 2.357.938 1.183-.32 2.36-.836 2.525-1.432.27-.976.32-1.574.733-1.852l.122 3.088c0 1.605 2.198.618 2.198-.124l-.122-2.964c-.244-1.853-1.831-1.729-4.03-.618-.16-.946-.324-1.892-.487-2.84zm4.329-8.207c.133-.282.297-2.555-.048-4.226C31.15.876 30.45.355 29.796 0c.623.392.893.794.992 1.01-.513-.327-.844-.352-1.246-.291 1.007.021 1.037.486 1.105.63.265 1.037-.779 1.921-1.385 2.726.841.402 1.897 1.212 2.263 2.261z" fill="#EF7C00"/></g><defs><clipPath id="clip0"><path fill="#fff" d="M0 0h120v57H0z"/></clipPath></defs></svg>
